docs/img/icons/mess.svg

<svg width="24" height="24" viewBox="0 0 24 24" xmlns="http://www.w3.org/2000/svg">
<g>
<path d="M12 2C6.4775 2 2 6.145 2 11.2587C2 14.1725 3.45375 16.7712 5.72625 18.4688V22L9.13125 20.1313C10.04 20.3825 11.0025 20.5187 12 20.5187C17.5225 20.5187 22 16.3737 22 11.26C22 6.14625 17.5225 2 12 2ZM12.9937 14.4688L10.4475 11.7525L5.47875 14.4688L10.945 8.66625L13.5538 11.3825L18.46 8.66625L12.9937 14.4688Z" />
</g>
</svg>

<svg width="24" height="24" xmlns="http://www.w3.org/2000/svg"><path d="M12 2C6.478 2 2 6.145 2 11.259c0 2.913 1.454 5.512 3.726 7.21V22l3.405-1.869c.909.252 1.871.388 2.869.388 5.523 0 10-4.145 10-9.259C22 6.146 17.523 2 12 2zm.994 12.469l-2.546-2.716-4.97 2.716 5.467-5.803 2.609 2.716 4.906-2.716-5.466 5.803z"/></svg>
